!!!COM: Anon.
!!!OTL: Virtutum Thronus Frangitur
!!!SCA: Folio 321'-322
!!!YOR: from 'Thirty-Five Conductus for Two and Three Voices', pp.93-95
!!!YOR: edited by Janet Knapp, Collegium Musicum No. 6, Yale University (1965)
!!!YOR: from the School of Notre Dame; circa 1170-1240
!!!YOO: Yale University
!!!YOY: 1965
**kern	**kern
*M6/8	*M6/8
=1	=1
4F	4A
8r	8B
4F	4c
8r	8r
=2	=2
4F	4c
8D	8d
4F	8c
.	8B
8G	8A
=3	=3
8E	4B
8C	.
8D	8r
4E	4B
8r	8c
=4	=4
4E	8B
.	8G
8r	8A
4E	4B
8r	8r
=5	=5
4E	4B
8C	8c
4E	8B
.	8A
8F	8G
=6	=6
8E	8A
8D	8B
8C	8c
4D	4A
8r	8r
=7	=7
4D	4A
8A	8D
4A	4A
8A	8F
=8	=8
8G	8G
8A	8F
8B-	8E
4A	4D
8A	8r
=9	=9
8G	4G
8F	.
8G	8A
8F	8c
8G	8B-
8B-	8G
=10	=10
8A	8A
8G	8Bn
8E	8c
4D	4A
8r	8r
=11	=11
4E	4c
8F	8B
4G	8A
.	8G
8G	8B
=12	=12
4G	4d
8D	8r
4F	4c
8r	8r
=13	=13
4G	4d
8D	8c
4E	8B
.	8A
8G	8G
=14	=14
4F	4A
8G	8G
4E	4.B
8r	.
=15	=15
4.F	4A
.	8r
8E	4.G
8D	.
8E	.
=16	=16
8D	4.F
8C	.
8D	.
4E	4E
8r	8r
=17	=17
4.F	4C
.	8D
8E	4E
8D	.
8E	8F
=18	=18
4D	8A
.	8G
8C	8E
4D	4D
8r	8r
=19	=19
4.F	4.F
4.r	4.r
=20	=20
4G	4G
8F	8A
4G	4G
8A	8F
=21	=21
8G	8E
8F	8D
8E	8C
4D	4D
8r	8r
=22	=22
4F	4c
8r	8r
4G	4B
8r	8r
=23	=23
4A	4A
8B-	8G
8A	8A
8G	8Bn
8A	8c
=24	=24
8G	8B
8F	8A
8G	8B
4A	4A
8r	8r
=25	=25
4.A	4.A
4c	4G
8d	8A
=26	=26
8c	4.c
8B-	.
8A	.
4.G	4.d
=27	=27
4.c	8c
.	8B-
.	8A
4.B-	4.G
=28	=28
4A	4A
8r	8r
4F	4A
8r	8r
=29	=29
4G	8G
.	8F
8G	8D
8F	4F
8E	.
8D	8r
=30	=30
4C	4G
8r	8r
4F	4F
8r	8r
=31	=31
4G	8E
.	8D
8A	8E
8G	4D
8F	.
8E	8C
=32	=32
4.D	4.D
4.r	4.r
=33	=33
2.F	2.c
=34	=34
4G	4d
8A	8c
4G	4B
8G	8G
=35	=35
8F	4A
8E	.
8F	8A
4G	4G
8r	8r
=36	=36
8F	4c
8E	.
8F	8r
4G	4B
8G	8r
=37	=37
8F	4A
8E	.
8F	8r
4G	4G
8r	8r
=38	=38
4.F	4.F
4E	4.G
8D	.
=39	=39
4F	4.A
8G	.
4A	4D
8G	8E
=40	=40
4.F	4.D
4.E	4.C
=41	=41
4.D	4.D
4.r	4.r
=42	=42
4D	4A
8C	8B
4F	4c
8G	8B
=43	=43
4A	4A
8A	8D
4A	4F
8G	8r
=44	=44
4A	4A
8G	8B-
4A	4A
8B-	8G
=45	=45
4A	4A
8G	8D
4F	4F
8G	8G
=46	=46
4.F	4.A
4.r	4.r
=47	=47
4.B-	4.F
4.G	4.G
=48	=48
4.A	4.F
4D	4A
8E	8G
=49	=49
8F	4A
8E	.
8D	8B
4C	4c
8r	8r
=50	=50
4F	4c
8G	8B
4A	4A
8D	8d
=51	=51
4F	8c
.	8B
8G	8G
8F	4A
8E	.
8D	8B
=52	=52
4.C	8c
.	8B
.	8G
4F	4F
8r	8r
=53	=53
2.A	2.c
=54	=54
4.D	4.d
4.r	4.r
=55	=55
4.A	8c
.	8B
.	8c
4A	4A
8B-	8G
=56	=56
4G	8A
.	8B
8G	8c
4G	4G
8r	8r
=57	=57
2.A	4.F
.	4.G
=58	=58
2.D	2.A
=59	=59
4.A	8G
.	8F
.	8E
4A	4D
8B-	8G
=60	=60
4G	8F
.	8E
8G	8D
4G	4C
8A	8F
=61	=61
4A	4E
8A	8D
4A	4F
8G	8G
=62	=62
4F	4A
8F	8B
4F	4c
8G	8B
=63	=63
4A	4A
8G	8d
4G	4G
8E	8A
=64	=64
4C	8c
.	8B
8C	8A
4C	4G
8r	8r
=65	=65
4F	4c
8r	8r
4E	4B
8r	8r
=66	=66
4D	4A
8F	8G
4E	4B
8r	8A
=67	=67
4F	4.c
8G	.
4E	4.B
8F	.
=68	=68
4D	4A
8F	8G
4E	4B
8r	8r
=69	=69
4.F	4.c
4G	4B
8A	8A
=70	=70
4G	4G
8F	8A
8E	8G
8D	8F
8E	8E
=71	=71
4.F	4.C
4D	4D
8r	8r
=72	=72
4F	4c
8r	8r
4F	4A
8r	8B
=73	=73
4F	4c
8D	8d
4F	8c
.	8B
8G	8A
=74	=74
8E	4B
8C	.
8D	8c
4E	4B
8r	8r
=75	=75
4E	4B
8r	8G
4E	4E
8r	8r
=76	=76
4E	4E
8C	8F
4E	8E
.	8D
8F	8C
=77	=77
8E	4E
8D	.
8C	8F
4D	4D
8r	8r
=78	=78
4D	4D
8A	8E
4A	4C
8A	8E
=79	=79
8G	4G
8A	.
8B	8G
4A	4A
8A	8r
=80	=80
8G	4G
8F	.
8G	8G
8F	4A
8G	.
8B-	8D
=81	=81
8A	4F
8G	.
8E	8G
4D	4A
8r	8r
=82	=82
4E	4A
8F	8r
4G	4G
8G	8A
=83	=83
4G	8B
.	8A
8D	8G
4F	4F
8r	8r
=84	=84
4G	4G
8D	8F
4E	8E
.	8D
8G	8E
=85	=85
4F	8D
.	8C
8G	8D
4E	4E
8r	8r
=86	=86
4.F	4A
.	8r
8E	4G
8D	.
8E	8r
=87	=87
8D	4F
8C	.
8D	8r
4E	4E
8r	8r
=88	=88
4.F	4D
.	8C
8E	4E
8D	.
8E	8G
=89	=89
4D	4F
8C	8E
4D	4D
8r	8r
=90	=90
[2.C	8G
.	8A
.	8B
.	4.c
=91	=91
2.C]	16c
.	16B
.	16A
.	16G
.	16F
.	16E
.	4D
.	8D
=92	=92
4.C	4.E
4D;	4D;
8r	8r
==	==
*-	*-
!!!ENC: David Huron
!!!YEC: Copyright 1987, David Huron
!!!EEV: 1.0
